X:201
T: Jackson's Bottle of Punch
N: O'Farrell's Pocket Companion v.3 (Sky ed. p.102-3)
N: "Irish"
M: 6/8
R: jig
L: 1/8
Q: 320
K: D
G|: FGF FED| EGE FED| FAF FED|E2F G2E|
FGF FED| EGE FED| d2B AGF| E2F G2E| :|
d3 AFA| BGB AFA| Bcd efg| fed cBA|
d3 AFA| BGB AFA| Bcd efg| fge d3 :|
d2e f2g| afd cBA| Bcd ecA| e2e ecA|
d2e f2g| afd cBA| Bcd ecA|  d3 d3 :|
